X:0016
M:2/4
L:1/8
Q:1/4=132
K:D
g|fdec | dBAG        |FA dF| E2        E
g|fdec | dBAG        |Fd Ec| d2        D:|
g|fdec | dBAG        |Fd Ec| d2        D:|

